X: 37738
T: Soldier's Return
R: reel
M: 4/4
K: Dmajor
DE|:F2 A,2 A,2 DA,|B,A,B,D E4|E2 DE F2 FD|GFED B,2 B,C|
D2D E F2 A,2|A,2 DA, B,A,B,D|E4 E2 DE|F2 FD GFED|B,2B, C D3 A,|
DEFG A2 FA|BAGF E2 DB,|DEFG A2 AG|F3 G A3 A|
DEFG A2 FA|BAGF E2 DE|1 F2 A,F GFED|B,A,B,C DCDE:|2 F2 FD GFED|B,3 C D4||

